Numix-Circle/48x48/apps/wow-launcher.svg

<?xml version="1.0" encoding="UTF-8" standalone="no"?>
<svg
   xmlns:dc="http://purl.org/dc/elements/1.1/"
   xmlns:cc="http://creativecommons.org/ns#"
   xmlns:rdf="http://www.w3.org/1999/02/22-rdf-syntax-ns#"
   xmlns:svg="http://www.w3.org/2000/svg"
   xmlns="http://www.w3.org/2000/svg"
   xmlns:xlink="http://www.w3.org/1999/xlink"
   xmlns:sodipodi="http://sodipodi.sourceforge.net/DTD/sodipodi-0.dtd"
   xmlns:inkscape="http://www.inkscape.org/namespaces/inkscape"
   width="48"
   viewBox="0 0 13.546667 13.546667"
   height="48"
   id="svg2"
   version="1.1"
   inkscape:version="0.91 r13725"
   sodipodi:docname="wow-launcher.svg">
  <metadata
     id="metadata331">
    <rdf:RDF>
      <cc:Work
         rdf:about="">
        <dc:format>image/svg+xml</dc:format>
        <dc:type
           rdf:resource="http://purl.org/dc/dcmitype/StillImage" />
        <dc:title />
      </cc:Work>
    </rdf:RDF>
  </metadata>
  <sodipodi:namedview
     pagecolor="#ffffff"
     bordercolor="#666666"
     borderopacity="1"
     objecttolerance="10"
     gridtolerance="10"
     guidetolerance="10"
     inkscape:pageopacity="0"
     inkscape:pageshadow="2"
     inkscape:window-width="1920"
     inkscape:window-height="1025"
     id="namedview329"
     showgrid="true"
     inkscape:zoom="55.865408"
     inkscape:cx="26.9723"
     inkscape:cy="12.869747"
     inkscape:window-x="0"
     inkscape:window-y="28"
     inkscape:window-maximized="1"
     inkscape:current-layer="layer3"
     showguides="true"
     inkscape:guide-bbox="true">
    <inkscape:grid
       type="xygrid"
       id="grid3308" />
  </sodipodi:namedview>
  <defs
     id="defs4">
    <linearGradient
       inkscape:collect="always"
       xlink:href="#linearGradient3816-2"
       id="linearGradient4033"
       x1="-27"
       y1="13"
       x2="-24"
       y2="13"
       gradientUnits="userSpaceOnUse" />
    <linearGradient
       id="linearGradient3816-2">
      <stop
         style="stop-color:#591a01;stop-opacity:1;"
         offset="0"
         id="stop3818-4" />
      <stop
         style="stop-color:#2e0800;stop-opacity:1;"
         offset="1"
         id="stop3820-4" />
    </linearGradient>
  </defs>
  <g
     inkscape:groupmode="layer"
     id="layer1"
     inkscape:label="Shadow"
     sodipodi:insensitive="true">
    <path
       style="opacity:0.05;fill:#000000;fill-opacity:1;stroke:none"
       d="M 25,2 C 12.297451,2 2,12.297451 2,25 2,31.367153 4.6007106,37.116628 8.78125,41.28125 12.865755,44.99361 18.29568,47.25 24.25,47.25 c 12.702549,0 23,-10.297451 23,-23 0,-5.95432 -2.25639,-11.384245 -5.96875,-15.46875 C 37.116628,4.6007105 31.367153,2 25,2 z M 41.28125,8.78125 C 45.135604,12.894061 47.5,18.418655 47.5,24.5 c 0,12.702549 -10.297451,23 -23,23 C 18.418655,47.5 12.894061,45.135604 8.78125,41.28125 12.940939,45.4251 18.664604,48 25,48 37.702549,48 48,37.702549 48,25 48,18.664604 45.4251,12.940939 41.28125,8.78125 z"
       transform="scale(0.28222223,0.28222223)"
       id="path3978"
       inkscape:connector-curvature="0" />
    <path
       style="opacity:0.1;fill:#000000;fill-opacity:1;stroke:none"
       d="M 41.28125,8.78125 C 44.99361,12.865755 47.25,18.29568 47.25,24.25 c 0,12.702549 -10.297451,23 -23,23 -5.95432,0 -11.384245,-2.25639 -15.46875,-5.96875 C 12.894061,45.135604 18.418655,47.5 24.5,47.5 c 12.702549,0 23,-10.297451 23,-23 0,-6.081345 -2.364396,-11.605939 -6.21875,-15.71875 z"
       transform="scale(0.28222223,0.28222223)"
       id="path3976"
       inkscape:connector-curvature="0" />
    <path
       transform="matrix(4.3274074,0,0,3.2455556,117.19278,-35.348334)"
       d="m -24,13 a 1.5,2 0 1 1 -3,0 1.5,2 0 1 1 3,0 z"
       sodipodi:ry="2"
       sodipodi:rx="1.5"
       sodipodi:cy="13"
       sodipodi:cx="-25.5"
       id="path3952"
       style="opacity:0.2;fill:#000000;fill-opacity:1;stroke:none"
       sodipodi:type="arc" />
  </g>
  <g
     inkscape:groupmode="layer"
     id="layer2"
     inkscape:label="Base">
    <path
       sodipodi:type="arc"
       style="fill:url(#linearGradient4033);fill-opacity:1.0;stroke:none"
       id="path3942"
       sodipodi:cx="-25.5"
       sodipodi:cy="13"
       sodipodi:rx="1.5"
       sodipodi:ry="2"
       d="m -24,13 a 1.5,2 0 1 1 -3,0 1.5,2 0 1 1 3,0 z"
       transform="matrix(0,4.3274075,3.2455556,0,-35.418894,117.12222)" />
    <path
       style="opacity:0.1;fill:#000000;fill-opacity:1;stroke:none"
       d="M 40.03125 7.53125 C 43.74361 11.615755 46 17.04568 46 23 C 46 35.702549 35.702549 46 23 46 C 17.04568 46 11.615755 43.74361 7.53125 40.03125 C 11.709416 44.322508 17.537578 47 24 47 C 36.702549 47 47 36.702549 47 24 C 47 17.537578 44.322508 11.709416 40.03125 7.53125 z "
       id="path4027"
       transform="scale(0.28222223,0.28222223)" />
  </g>
  <g
     inkscape:groupmode="layer"
     id="layer3"
     inkscape:label="Symbol">
    <path
       style="fill:#000000;fill-opacity:0.15686275;stroke:none"
       d="m 7.0555556,2.8309708 c -0.760174,0 -1.46474,0.2048276 -2.0813888,0.555625 l -1.5875001,0 0,1.5698612 C 3.0292743,5.5773473 2.8222223,6.2964668 2.8222223,7.0643043 c 0,0.7678375 0.207052,1.4869569 0.5644444,2.1078476 l 0,1.5522221 1.5522223,0 c 0.6243425,0.362856 1.3425246,0.573264 2.1166666,0.573264 0.7741421,0 1.5011437,-0.210408 2.1254862,-0.573264 l 1.5434022,0 0,-1.5434031 c 0.360783,-0.6230388 0.564445,-1.3449124 0.564445,-2.1166666 0,-0.7717542 -0.203662,-1.4936279 -0.564445,-2.1166668 l 0,-1.5610417 -1.57868,0 C 8.5291152,3.0357984 7.8157297,2.8309708 7.0555556,2.8309708 z m 0.017639,0.714375 c 1.940047,0 3.5101384,1.5700921 3.5101384,3.510139 0,1.9400471 -1.5700914,3.5189582 -3.5101384,3.5189582 -1.9400469,0 -3.5101389,-1.5789111 -3.5101389,-3.5189582 0,-1.9400469 1.570092,-3.510139 3.5101389,-3.510139 z"
       id="rect3033-1-3"
       inkscape:connector-curvature="0" />
    <path
       style="fill:#d59326;fill-opacity:1;stroke:none"
       d="m 6.7733335,2.5487486 c -0.760174,0 -1.46474,0.2048275 -2.0813888,0.555625 l -1.5875001,0 0,1.5698612 C 2.7470522,5.2951251 2.5400001,6.0142445 2.5400001,6.782082 c 0,0.7678375 0.2070521,1.486957 0.5644445,2.1078469 l 0,1.5522231 1.5522223,0 c 0.6243425,0.362856 1.3425246,0.573264 2.1166666,0.573264 0.7741421,0 1.5011437,-0.210408 2.1254862,-0.573264 l 1.5434023,0 0,-1.5434031 c 0.360783,-0.623039 0.564445,-1.3449127 0.564445,-2.1166669 0,-0.7717541 -0.203662,-1.4936278 -0.564445,-2.1166667 l 0,-1.5610417 -1.5786801,0 C 8.2468931,2.7535761 7.5335076,2.5487486 6.7733335,2.5487486 z m 0.017639,0.714375 c 1.940047,0 3.5101385,1.570092 3.5101385,3.510139 0,1.9400473 -1.5700915,3.5189584 -3.5101385,3.5189584 -1.9400469,0 -3.5101389,-1.5789111 -3.5101389,-3.5189584 0,-1.940047 1.570092,-3.510139 3.5101389,-3.510139 z"
       id="rect3033-1"
       inkscape:connector-curvature="0" />
    <path
       style="fill:#000000;fill-opacity:0.15686275;stroke:none"
       d="M 8.0491509,4.9171813 8.2343592,5.1729451 7.8198453,7.9157924 C 7.5148328,6.680854 7.1157621,5.04428 7.1142898,5.0406535 L 6.444012,7.906973 5.9236647,5.4110702 6.0294981,4.9260007 4.5213731,4.9083618 c 0.120652,0.092167 0.2126087,0.2473246 0.3086806,0.3704167 l 0.9524999,3.8717364 c -0.078371,0.145392 -0.1961046,0.282532 -0.2910416,0.405694 0.50862,0.0027 1.0282179,0.0061 1.4640277,0.0088 L 6.8497064,9.1064179 7.1407481,7.7746813 7.3876925,9.2210699 7.3435955,9.5650289 8.781165,9.5562289 8.772345,9.5474289 8.5783176,9.1769729 9.1604009,5.5433618 9.6013731,4.8995424 c -0.5174081,0.0057 -1.0348155,0.011726 -1.5522222,0.017639 z"
       id="rect3904-6"
       inkscape:connector-curvature="0"
       sodipodi:nodetypes="cccccccccccccccccccccc" />
    <path
       style="fill:#d59326;fill-opacity:1;stroke:none"
       d="M 7.7638229,4.6491401 7.9490313,4.904904 7.5345174,7.6477513 C 7.2295048,6.4128129 6.8304342,4.7762389 6.8289618,4.7726124 L 6.158684,7.6389319 5.6383368,5.143029 5.7441701,4.6579596 4.2360452,4.6403207 c 0.1206519,0.092167 0.2126087,0.2473246 0.3086805,0.3704167 l 0.9525,3.8717365 c -0.078371,0.145392 -0.1961046,0.282532 -0.2910416,0.405694 0.5086199,0.0027 1.0282179,0.0061 1.4640277,0.0088 L 6.5643785,8.8383759 6.8554201,7.5066402 7.1023646,8.9530289 7.0582674,9.2969879 8.4958368,9.2881679 8.4870174,9.2793489 8.2929896,8.9089319 8.875073,5.2753207 9.3160452,4.6315012 c -0.5174082,0.0057 -1.0348155,0.011726 -1.5522223,0.017639 z"
       id="rect3904"
       inkscape:connector-curvature="0"
       sodipodi:nodetypes="cccccccccccccccccccccc" />
  </g>
</svg>

<svg xmlns="http://www.w3.org/2000/svg" width="48" viewBox="0 0 13.546667 13.546667" height="48"><defs><linearGradient id="linearGradient4033" x1="-27" x2="-24" gradientUnits="userSpaceOnUse"><stop stop-color="#591a01" stop-opacity="1"/><stop offset="1" stop-color="#2e0800" stop-opacity="1"/></linearGradient></defs><g><path d="m 25 2 c -12.703 0 -23 10.297 -23 23 0 6.367 2.601 12.12 6.781 16.281 4.085 3.712 9.514 5.969 15.469 5.969 c 12.703 0 23 -10.297 23 -23 0 -5.954 -2.256 -11.384 -5.969 -15.469 c -4.165 -4.181 -9.914 -6.781 -16.281 -6.781 z m 16.281 6.781 c 3.854 4.113 6.219 9.637 6.219 15.719 c 0 12.703 -10.297 23 -23 23 c -6.081 0 -11.606 -2.364 -15.719 -6.219 4.16 4.144 9.883 6.719 16.219 6.719 12.703 0 23 -10.297 23 -23 0 -6.335 -2.575 -12.06 -6.719 -16.219 z" transform="scale(0.28222223,0.28222223)" opacity="0.05" fill="#000" stroke="none" fill-opacity="1"/><path d="m 41.28 8.781 c 3.712 4.085 5.969 9.514 5.969 15.469 c 0 12.703 -10.297 23 -23 23 -5.954 0 -11.384 -2.256 -15.469 -5.969 c 4.113 3.854 9.637 6.219 15.719 6.219 c 12.703 0 23 -10.297 23 -23 0 -6.081 -2.364 -11.606 -6.219 -15.719 z" transform="scale(0.28222223,0.28222223)" opacity="0.1" fill="#000" stroke="none" fill-opacity="1"/><path transform="matrix(4.3274074,0,0,3.2455556,117.19278,-35.348334)" d="m -24 13 a 1.5 2 0 1 1 -3 0 1.5 2 0 1 1 3 0 z" opacity="0.2" fill="#000" stroke="none" fill-opacity="1"/></g><g><path d="m -24 13 a 1.5 2 0 1 1 -3 0 1.5 2 0 1 1 3 0 z" transform="matrix(0,4.3274075,3.2455556,0,-35.418894,117.12222)" fill="url(#linearGradient4033)" stroke="none" fill-opacity="1"/><path d="m 40.03 7.531 c 3.712 4.085 5.969 9.514 5.969 15.469 c 0 12.703 -10.297 23 -23 23 c -5.954 0 -11.384 -2.256 -15.469 -5.969 c 4.178 4.291 10.01 6.969 16.469 6.969 c 12.703 0 23 -10.297 23 -23 c 0 -6.462 -2.677 -12.291 -6.969 -16.469 z" transform="scale(0.28222223,0.28222223)" opacity="0.1" fill="#000" stroke="none" fill-opacity="1"/></g><g><path d="m 7.06 2.831 c -0.76 0 -1.465 0.205 -2.081 0.556 l -1.588 0 0 1.57 c -0.357 0.621 -0.564 1.34 -0.564 2.108 c 0 0.768 0.207 1.487 0.564 2.108 l 0 1.552 1.552 0 c 0.624 0.363 1.343 0.573 2.117 0.573 0.774 0 1.501 -0.21 2.125 -0.573 l 1.543 0 0 -1.543 c 0.361 -0.623 0.564 -1.345 0.564 -2.117 0 -0.772 -0.204 -1.494 -0.564 -2.117 l 0 -1.561 -1.579 0 c -0.617 -0.351 -1.33 -0.556 -2.09 -0.556 z m 0.018 0.714 c 1.94 0 3.51 1.57 3.51 3.51 0 1.94 -1.57 3.519 -3.51 3.519 -1.94 0 -3.51 -1.579 -3.51 -3.519 0 -1.94 1.57 -3.51 3.51 -3.51 z" fill="#000" stroke="none" fill-opacity="0.157"/><path d="m 6.773 2.549 c -0.76 0 -1.465 0.205 -2.081 0.556 l -1.588 0 0 1.57 c -0.357 0.621 -0.564 1.34 -0.564 2.108 c 0 0.768 0.207 1.487 0.564 2.108 l 0 1.552 1.552 0 c 0.624 0.363 1.343 0.573 2.117 0.573 0.774 0 1.501 -0.21 2.125 -0.573 l 1.543 0 0 -1.543 c 0.361 -0.623 0.564 -1.345 0.564 -2.117 0 -0.772 -0.204 -1.494 -0.564 -2.117 l 0 -1.561 -1.579 0 c -0.617 -0.351 -1.33 -0.556 -2.09 -0.556 z m 0.018 0.714 c 1.94 0 3.51 1.57 3.51 3.51 0 1.94 -1.57 3.519 -3.51 3.519 -1.94 0 -3.51 -1.579 -3.51 -3.519 0 -1.94 1.57 -3.51 3.51 -3.51 z" fill="#d59326" stroke="none" fill-opacity="1"/><path d="m 8.05 4.917 0.185 0.256 -0.415 2.743 c -0.305 -1.235 -0.704 -2.872 -0.706 -2.875 l -0.67 2.866 -0.52 -2.496 0.106 -0.485 -1.508 -0.018 c 0.121 0.092 0.213 0.247 0.309 0.37 l 0.952 3.872 c -0.078 0.145 -0.196 0.283 -0.291 0.406 0.509 0.003 1.028 0.006 1.464 0.009 l -0.106 -0.459 0.291 -1.332 0.247 1.446 -0.044 0.344 1.438 -0.009 -0.009 -0.009 -0.194 -0.37 0.582 -3.634 0.441 -0.644 c -0.517 0.006 -1.035 0.012 -1.552 0.018 z" fill="#000" stroke="none" fill-opacity="0.157"/><path d="m 7.764 4.649 0.185 0.256 -0.415 2.743 c -0.305 -1.235 -0.704 -2.872 -0.706 -2.875 l -0.67 2.866 -0.52 -2.496 0.106 -0.485 -1.508 -0.018 c 0.121 0.092 0.213 0.247 0.309 0.37 l 0.952 3.872 c -0.078 0.145 -0.196 0.283 -0.291 0.406 0.509 0.003 1.028 0.006 1.464 0.009 l -0.106 -0.459 0.291 -1.332 0.247 1.446 -0.044 0.344 1.438 -0.009 -0.009 -0.009 -0.194 -0.37 0.582 -3.634 0.441 -0.644 c -0.517 0.006 -1.035 0.012 -1.552 0.018 z" fill="#d59326" stroke="none" fill-opacity="1"/></g></svg>
